X:20
T:Duke of Bronti's favorite. Pn1801.20
Q:3/8=50
M:3/8
L:1/8
C:"460"
N:Vice Admiral Lord Viscount Nelson, Duke of Bronti &c &c.
W:1st Lady turn the 2d Gent .| 1st Gent turn the 2d Gent :|
W:Le Poussette with the 2d Cu: round and a half :||: right and left :||
B:Preston 24 for 1801
Z:Village Music Project, John Adams, 2017
K:C
B,/C/D/|EEE|DE/D/C/B,/|EEE|DE/D/C/B,/|CEG|ceg|fdB|c2:|
|:e2f|g2e|aaf|g2ce2f|g2e|1v ffd|e2c:|2 fdB | c2|]
K:F
|:c|cAB|cde|fed|c2A|BBc|AAc|1BBc|A2c:|2BGE|F2|]
